X:1
T:How Can I Keep My Maidenhead
M:6/8
L:1/4
K:C
 E/2| A, B,/2 C E/2| A A/2 A E/2| G G/2 G D/2| E E/2 E D/2| C B,/2 A, E/2|\
 A B/2c/2-B/2 A/2| G E/2D/2 C| D3/2 E3/2| z z/2 z D/2| C/2 B, A, B,/2|\
 C/2 C C E/2| D/2 D D E/2| A/2 G E D/2| C B,/2 A, E/2| A/2 B cB/4-A/4|\
 G E/2 D C/2| D3/2 E3/2| z z/2 z||
